X:1
T:5 Poems, Op.19
T:An eine Aeolsharfe
T:5. An eine Aeolsharfe
T:Johannes Brahms
T:Eduard Mörike
T:5 Poems, Op.19
T:OpenScore (CC0)
T:OpenScore (CC0)
T:OpenScore (CC0)
T:OpenScore (CC0)
T:OpenScore (CC0)
C:Johannes Brahms
Z:Eduard Friedrich Mörike
Z:OpenScore (CC0)
%%score 1 { ( 2 4 ) | 3 }
L:1/8
Q:1/4=115
M:2/2
K:Ab
V:1 treble nm="Singstimme\nVoice"
V:2 treble nm="Pianoforte"
V:4 treble 
V:3 bass 
V:1
"^Poco lento\nRecit.\n" e6 _c2 | A4 B2 _c2 | _c6 B2 | B4 B2 _c2 | d4 _c2 B2 | B4 A2 z2 | %6
w: An- ge-|lehnt an die|E- pheu-|wand die- ser|al- ten Ter-|ras- se,|
 _f4 _c2 c2 | _f3 d B2 _G2 | d4 _c2[Q:1/4=115]"^in tempo" c2 | _g4 e4 | _c4 B4 | B6 =A2 | =A4 z4 | %13
w: du, ei- ner|luft- ge- bor- nen|Mu- se ge-|heim- nis-|vol- les|Sai- ten-|spiel,|
 z8 | z8 | z4 =A4 | B4 z4 | =A2 A2 B2 =c2 | B4 z4 | %19
w: ||fang|an,|fan- ge wie- der|an|
"^sempre rit."[Q:1/4=112]"^T" B4[Q:1/4=110]"^T" =c2 d2 |[Q:1/4=108]"^T" (e4[Q:1/4=106]"^T" _f4-) | %21
w: dei- ne me-|lo- *|
[Q:1/4=104]"^T" _f4[Q:1/4=102]"^T" e2 d2 |[Q:1/4=100]"^T" (=c4[Q:1/4=98]"^T" e4-) | %23
w: * di- sche|Kla- *|
[Q:1/4=95]"^T" e4[Q:1/4=92]"^T" !breath!!fermata!e4 ||[Q:1/4=115]"^in tempo" z8 | z4 z2 A2 | %26
w: * ge.||Ihr|
 A6 c2 | e6 f2 | e6 B2 | e4 d4 | z2 B2 c2 d2 | A4 G4 | z2 d2 e2 f2 | d4 c4 | z4 a4 | %35
w: kom- met,|Win- de,|fern her-|ü- ber,|ach, von des|Kna- ben,|der mir so|lieb war,|frisch|
 (g2 f2) e2 =d2 | f4 e4 | z4 z2 B2 | (c2 A2) (A2 c2) | e6 f2 | e2 B2 c2 e2 | e4 d4 | z4 d2 d2 | %43
w: grü- * nen- dem|Hü- gel.|Und|Früh- * lings- *|blü- ten|un- ter- we- ges|strei- fend|ü- ber-|
 =d4 d2 d2 | e6 e2 | ^f4 f4 | z4 =e4 | ^c4 z4 | z4!p! _e4 | =c6 _A2 | _c8 | B4 A4 | E4 z4 | %53
w: sät- tigt mit|Wohl- ge-|rü- chen,|wie|süss,|wie|süss, be-|drängt|ihr dies|Herz!|
!mp! z4 z2 B2 | B6 B2 | __B4 e2 e2 | e4 A4 | z4 A2 A2 | =G4 d2 d2 | (d2 _g2) (3._f2 .e2 .d2 | %60
w: Und|säu- selt|her in die|Sai- ten,|an- ge-|zo- gen von|wohl- * lau- ten- der|
 d4 _c4 | z8 | ^c4 =B2 B2 | =c4 =B2 B2 | (=e6 =d2) | c4 z4 | z4 c4 | _d8 | c4 c4 | e4 d4 | z8 | %71
w: Weh- mut,||wach- send im|Zug mei- ner|Sehn- *|sucht|und|hin-|ster- bend|wie- der.||
 z8 | z8 |[Q:1/4=115]"^Recit." z4 (3A2 A2 A2 | (3:2:2_c4 c2 (3z2 B2 A2 | f4 (3e2 e2 f2 | e4 =d4 | %77
w: ||A- ber auf|ein- mal, wie der|Wind hef- ti- ger|her- stösst,|
[Q:1/4=115]"^in tempo" z8 | z2 A2 A2 c2 | e6 f2 | f4 e2 z2 | z4 A2 A2 | d4 c2 B2 | (A2 G2) G2 f2 | %84
w: |ein hol- der|Schrei der|Har- fe|wie- der-|holt mir zu|sü- * ssem Er-|
 (e6 d2) | c4 c2 c2 | a6 a2 | (g2 f2) e2 =d2 | f4 e4 | z4 z2 B2 | %90
w: schre- *|cken mei- ner|See- le|plötz- * li- che|Re- gung,|und|
[Q:1/4=105]"^Poco più lento" c4 z4 |[Q:1/4=100]"^T" z2 A2 e2 f2 | d4 d4 | z2 d4 A2 | B4 B2 z2 | %95
w: hier \-|die vol- le|Ro- se|streut ge-|schüt- telt|
 z2 d2 =c2 B2 | (A2 B2) c2 d2 | (f2 e4) d2 |!>(! A4 A4!>)! | z8 | z8[Q:1/4=95]"^T" | %101
w: all ih- re|Blät- * ter vor|mei- * ne|Fü- sse.|||
 z8[Q:1/4=92]"^T"[Q:1/4=89]"^T" |[Q:1/4=86]"^T" z8 | z8 |] %104
w: |||
V:2
!p![I:staff +1] [A,_C]8- | [A,C]8 | [B,D]8- | [B,D]8 | ([G,D]8 | [A,_C]8) |[I:staff -1] [_C_F]8 | %7
 [_D_F]8 | [_C_E]8 | [_C_G]6!pp! [_c_c']2 | %10
 (3(.[_g_c'_g']2 .[gc'g']2 .[gc'g']2 (3.[gbg']2 .[gbg']2 .[gbg']2) | %11
 (3(.[_gb_g']2 .[gbg']2 .[gbg']2 (3.[gbg']2 .[gbg']2 .[g=ag']2) | %12
!<(! (3(.[_g=a_g']2 .[gag']2 .[gag']2!<)!!p! (3.[g=f']2 .[gf']2 .[gf']2) | %13
 (3(.[_ge']2 .[ge']2 .[ge']2 (3.[gd']2 .[gd']2 .[gd']2) | %14
!>(! (3(.[=c_g=c']2 .[cgc']2 .[cgc']2 (3.[eb]2 .[eb]2 .[eb]2)!>)! | %15
!pp! (3(.[e=a]2 .[ea]2 .[ea]2 (3.[ea]2 .[ea]2 .[ea]2) | %16
 (3(.[eb]2 .[eb]2 .[eb]2 (3.[eb]2 .[eb]2 .[eb]2) | %17
!<(! (3(.[e=a]2 .[ea]2 .[ea]2 (3.[ea]2 .[ea]2 .[ea]2)!<)! | %18
!>(! (3(.[eb]2 .[eb]2 .[eb]2 (3.[eb]2 .[eb]2 .[eb]2)!>)! | %19
"_sempre rit."!<(! (3(.[eb]2 .[eb]2 .[eb]2 (3.[e=c']2 .[ec']2 .[ed']2) | %20
 (3[ee']2 [ee']2 [ee']2 (3[_f_c'_f']2 [fc'f']2 [fc'f']2!<)! | %21
 (3[_f_c'_f']2 [fc'f']2 [fc'f']2 (3[eae']2 [eae']2 [dad']2 | %22
!>(! (3[=ca=c']2 [cac']2 [cac']2 (3[eae']2 [eae']2 [eae']2 | %23
 (3[eae']2 [eae']2 [eae']2 (3[ege']2 [ege']2 !breath!!fermata![ege']2!>)! || %24
!p!"_legato"!<(!!8va(! ([ea=c'e']6 [fac'f']2 | [eac'e']6 [fac'f']2)!<)! | %26
!mf! ([eac'e']6 [fac'f']2 | [eac'e']6 [fac'f']2) | [ebe']6 ([e-b]2 | ([ea-e']4 [dad']2)) z2 | %30
 [dad']8 | [dbd']8 |!mp! [=fd'=f']8 |!<(! [ec'e']8!<)! | [a=d'a']8 | [a=d'a']8 | [ge'g']8 | %37
 [egbd'e']8 | ([eac'e']6 [fac'f']2 | [eac'e']6 [fac'f']2) | [ebe']8 | ([ea-e']4 [dad']4) | %42
 [dad']8 |"_cresc. poco" [=d^g=b=d']8 |!<(! [^d=a=c'^d']8 | [^f=a=c'^f']8!<)! |!mp! [^g=b=d'^g']8 | %47
 [=a^c'=a']8 | [=g_b_d'=g']8 |!<(! [_a=c'_a']8!8va)!!<)! | [A_cfa]8- |!>(! [Acfa]8!>)! | [GBeg]8 | %53
 [Begb]8 | [Be_gb]8 | [__Be_g__b]8 | [Ae_ga]8 | [Ad_fa]8 |!<(! [=G^c=e=g]8 | [^A^c=e^f]8!<)! | %60
 [^F=B^d^f]8 |!>(! [^d^f]8!>)! |!>(! [=e^g]8!>)! |!<(! [=e=g]8!<)! | [g=b]8 |!>(! [cgc']8!>)! | %66
!>(! ([gg']4 c'4)!>)! |!>(! ([gg']4 _d'4)!>)! | ([gg']4"_dim." c'4) | ([gg']4 d'4) | %70
 ([ee']4!>(! g4) | (b4 B4 | d4 G4)!>)! |!p! [_CA_c]4 z4 | z8 | ([Af]4 [Ae]4) | (e4 =d4) | %77
 (e4 _d4) |!p!!8va(! [ea=c'e']6 [fac'f']2 | [eac'e']6 [fac'f']2 | ([fbf']4 [ee']2)!8va)! (.b2 | %81
 [ee']4 [dd']4) | [dad']8 | [Bb]8 |!8va(! [ebe']8 |!<(! [ec'e']8!<)! | [ac'a']8 | [a=d'a']8 | %88
 [ge'g']8 |!>(! [egbd'e']8!8va)!!>)! | ([c'e']2 [af']2 [c'e']2 [_gf']2 | %91
 [c'e']2 [af']2 [c'e']2 [_gf']2) | ([ad']2 [fe']2 [ad']2 [d_c']2 | [ad']2 [fe']2 [ad']2 [d_c']2) | %94
!<(! ([_gb]2 [d_c']2 [gb]2 [d-a]2) | ([d_g]2!<)! [d_f]2 [=ce]2) [Bd-]2 | %96
 [Ad]2!<(! ([Bd]2 [ce]2 [df]2)!<)! |!>(! ([fa]2 [e_g]4 [df]2)!>)! | %98
 ([ce]2"_dim." [Af]2 [ce]2 [Af]2) | ([ce]2 [Af]2 [ce]2 [Af]2) | [ce]6 ([A-c]2 | [Ae]6) ([A-c]2 | %102
 [Ae-]8) |!ppp! e8 |] %104
V:3
 [A,,E,]8- | [A,,E,]8 | [A,,_F,]8- | [A,,F,B,D]8 | [A,,E,]8- | [A,,E,]8 | [A,,_F,A,]8 | [B,,_G,]8 | %8
 [_C,_G,]8 | [E,,E,]6 z2 |[K:treble] (3(.[E_G_c]2 .[EGc]2 .[EGc]2 (3.[EGB]2 .[EGB]2 .[EGB]2) | %11
 (3(.[E_GB]2 .[EGB]2 .[EGB]2 (3.[EGB]2 .[EGB]2 .[EG=A]2) | %12
 (3[E_G=A]2 [EGA]2 [EGA]2 (3[_DGA]2 [DGA]2 [DGA]2 | %13
 (3[=C_G=A]2 [CGA]2 [CGA]2 (3[B,GB]2 [B,GB]2 [B,GB]2 | %14
 (3[=A,_G]2 [A,G]2 [A,G]2 (3[_DG]2 [DG]2 [DG]2 | (3[C_G]2 [CG]2 [CG]2 (3[CG]2 [CG]2 [CG]2 | %16
 (3[D=G]2 [DG]2 [DG]2 (3[DG]2 [DG]2 [DG]2 | (3[C_G]2 [CG]2 [CG]2 (3[CG]2 [CG]2 [CG]2 | %18
 (3[D=G]2 [DG]2 [DG]2 (3[DG]2 [DG]2 [DG]2 | (3[DG]2 [DG]2 [DG]2 (3[DG]2 [DG]2 [DG]2 | %20
 (3[CA]2 [CA]2 [CA]2 (3[_C_FA]2 [CFA]2 [CFA]2 | %21
 (3[A,_C_FA]2 [A,CFA]2 [A,CFA]2[K:bass] (3[D,A,_F]2 [D,A,F]2 [D,A,F]2 | %22
 (3[E,A,E]2 [E,A,E]2 [E,A,E]2[K:treble]"^rit." (3[E_c]2 [Ec]2 [Ec]2 | %23
 (3[EB]2 [EB]2 [EB]2 (3[EB]2 [EB]2 !breath!!fermata![EB]2 || (3(A,2 E2 A2 c2 F2) | %25
 (3(A,2 E2 A2 c2 F2) | (3(A,2 E2 A2 c2 F2) | (3(A,2 E2 A2 c2 F2) | (3(G,2 E2 G2 B2 G2) | %29
 (3(F,2 D2 F2 A2 D2) | (3(_F,2 D2 _F2 A2 D2) | (3(E,2 D2 E2 G2 E2) | (3(G,2 E2 G2 d2 B2) | %33
 (3(A,2 E2 A2 c2 A2) | (3(B,2 F2 B2 f2 =d2) | (3(B,2 F2 B2 =d2 B2) | (3(E2 B2 e2 g2 e2) | %37
 (3(E,2 D2 G2 B2 E2) | (3(A,2 E2 A2 c2 F2) | (3(A,2 E2 A2 c2 F2) | (3(G,2 E2 G2 B2 G2) | %41
 (3(F,2 D2 F2 A2 D2) | (3(_F,2 D2 _F2 A2 F2) | (3(=E,2 =B,2 =E2 ^G2 E2) | (3(=E,2 =C2 ^F2 =A2 F2) | %45
 (3(=E,2 =C2 =A2 =c2 ^D2) |"^dolce" (3(=E,2 =D2 ^G2 =B2 =E2) | (3(=E,2 ^C2 =A2 ^c2 =E2) | %48
 (3(_E,2 _D2 =G2 _B2 E2) | (3(E,2 C2 A2 c2 E2) |[K:bass] (3(=D,2 _C2 F2 A2 F2) | %51
 (3(=D,2 A,2 _C2 F2 C2) | (3(E,2 B,2 E2 G2 E2) | (3(E,2 B,2 E2 G2 E2) | (3(E,2 B,2 E2 _G2 E2) | %55
 (3(D,2 __B,2 E2 _G2 E2) | (3(C,2 A,2 E2 _G2 E2) | (3(D,2 A,2 D2 _F2 D2) | %58
 (3(=B,,2 =G,2 ^C2 =E2"_cresc. poco" C2) | (3(^A,,2 ^F,2 ^C2 =E2 C2) | %60
 (3(=A,,2 ^F,2 =B,2 ^D2 B,2) | (3(=A,,2 ^F,2 =B,2 ^D2 B,2) | (3(^G,,2 =E,2 =B,2 =E2 B,2) | %63
 (3(=G,,2 =E,2 =B,2 =E2 B,2) | (3(=F,,2 =D,2 G,2 =B,2 G,2) | (3(=E,,2 C,2 G,2 C2 G,2) | %66
 (3(_E,,2 C,2 G,2 C2 G,2) | (3(E,,2 _D,2 G,2 B,2 G,2) | (3(E,,2 C,2 G,2 C2 G,2) | %69
 (3(E,,2 D,2 G,2 B,2 G,2) | (3(E,,2 D,2 G,2 B,2 G,2) | (3(E,,2 D,2 G,2 B,2 G,2) | %72
 (3(E,,2 D,2 G,2 B,2 G,2) | [=D,,F,]4 z4 | z8 | ([=D,_C]4 [E,C]4) | [F,_C]8 | [G,B,]8 | %78
[K:treble] (3(A,2 E2 A2 c2 F2) | (3(A,2 E2 A2 c2 F2) | (3(G,2 E2 G2 B2 G2) | (3(F,2 D2 F2 A2 D2) | %82
 (3(_F,2 D2 _F2 A2 D2) | (3(E,2 D2 E2 G2 E2) | (3(G,2 E2 G2 B2 E2) | (3(A,2 E2 A2 c2 A2) | %86
 (3(F,2 C2 F2 c2 A2) | (3(B,2 A2 =d2 f2 B2) | (3(E2 B2 e2 g2 e2) | (3(E,2 D2 G2 B2 E2) | %90
 (3(A,2 E2 A2 (3c2 A2 E2) | (3(A,2 E2 A2 (3c2 A2 E2) |[K:bass] (3(D,2 A,2 D2 (3F2 D2 A,2) | %93
 (3(D,2 A,2 D2 (3F2 D2 A,2) | (3(_G,,2 D,2 _G,2 (3B,2 G,2 D,2) | %95
 (3(_G,,2 D,2 B,2 (3=G,,2 D,2 B,2) | (3(A,,2 F,2 A,2 (3D2 A,2 F,2) | %97
 (3(D,,2 A,,2 F,2 (3D2 A,2 D,2) | (3(A,,2 E,2 A,2 (3C2 A,2 F,2) | (3(A,,2 E,2 A,2 (3C2 A,2 F,2) | %100
 (3(A,,2 E,2 A,2 (3C2 A,2 F,2) | (3(A,,2 E,2 A,2 (3C2 A,2 F,2) | %102
 (3(A,,2 E,2 A,2[K:treble] (3C2 E2!ped! A2- | [Ac]8)!ped-up! |] %104
V:4
 x8 | x8 | x8 | x8 | x8 | x8 | x8 | x8 | x8 | x8 | x8 | x8 | x8 | x8 | x8 | x8 | x8 | x8 | x8 | %19
 x8 | x8 | x8 | x8 | x8 ||!8va(! x8 | x8 | x8 | x8 | x8 | x8 | x8 | x8 | x8 | x8 | x8 | x8 | x8 | %37
 x8 | x8 | x8 | x8 | x8 | x8 | x8 | x8 | x4 x4 | x8 | x8 | x8 | x8!8va)! | x8 | x8 | x8 | x8 | x8 | %55
 x8 | x8 | x8 | x8 | x8 | x8 | ([^c^c']4 [=B=b]4) | ([^c^c']4 [=B=b]4) | ([=c=c']4 [=B=b]4) | %64
 ([=e=e']6 [=d=d']2) | x8 | x8 | x8 | x8 | x8 | x8 | x8 | x8 | x8 | x8 | x8 | A8 | B8 |!8va(! x8 | %79
 x8 | x6!8va)! x2 | a8 | x8 | (a4 g4) |!8va(! x8 | x8 | x8 | x8 | x8 | x8!8va)! | x8 | x8 | x8 | %93
 x8 | x8 | x8 | x8 | x8 | x8 | x8 | x8 | x8 | x8 | x8 |] %104

